!!!OTL: 486. Die Stuecke weiblicher Schoenheit.
!!!ARE: Europa, Mitteleuropa, Deutschland
!!!SCT: E0486
!!!TXL: @@DE
!!!YEM: Copyright 1995, estate of Helmut Schaffrath.
**kern	**text
*ICvox	*
*M4/4	*
*met(c)	*
*k[f#c#g#]	*
*A:	*
{8aL	Die
8bJ	.
=1	=1
4cc#	Fiſch
4b	im
4cc#	Waſ-
4dd	-ſer
=2	=2
2ee	woh-
4cc#}	-nen,
{4ee	das
=3	=3
4dd	Gwild
4cc#	wohl
4b	in
4ee	dem
=4	=4
2cc#	Wald?
4r}	.
{8aL	So
8bJ	.
=5	=5
4cc#	hal-
4b	-ten
4cc#	ſie
4dd	ʒu-
=6	=6
2ee	-ſam-
4cc#}	-men
{4ee	die
=7	=7
4dd	Men-
4cc#	-ſchen
4b	jung
4ee	und
=8	=8
2cc#	alt;
4r}	.
{4cc#	da-
=9	=9
4cc#	-mit
4b	ſie
4a	thun
4g#	ſich
=10	=10
2f#	meh-
4e}	-ren,
{8bL	gar
8aJ	.
=11	=11
4g#	viel
8f#L	und
8eJ	.
8f#L	man-
8eJ	.
8c#L	-nig-
8d#J	.
=12	=12
2e	-falt,
4r}	.
{8f#L	da-
8g#J	.
=13	=13
4a	-mit
4a	ſie
4b	thun
4b	ſich
=14	=14
(4cc#	meh-
4ee)	.
8ddL	-ren
8cc#J}	.
{8bL	gar
8aJ	.
=15	=15
4b/	viel
4a	und
4a	man-
4g#	-nig-
=16	=16
2a	-falt.
4r}	.
==	==
!!!AGN: Liebes - Lied
!!!ONB: ESAC (Essen Associative Code) Database: ERK1
!!!AMT: simple quadruple
!!!AIN: vox
!!!EED: Helmut Schaffrath
!!!EEV: 1.0
!!!GTL: Liebeslieder [Alte (aus dem 13. bis 17. Jahrh.) mit ihrem jungen Nachwuchs]
!!!URL-scan: https://rosdok.uni-rostock.de/mcrviewer/recordIdentifier/rosdok_ppn745177662/iview2/phys_0310.iview2?x=-445.812200956939&y=210.64382447535172&scale=0.47662485746864275&rotation=0&layout=singlePageLayout
!!!ENC: Anna Maria Matuszewska
!!!EEV: 2024/10/12
*-	*-
